branches/nugui/src/gui/icons/bond_triple.svg

<?xml version="1.0" encoding="UTF-8" standalone="no"?>
<!-- Created with Inkscape (http://www.inkscape.org/) -->

<svg
   xmlns:dc="http://purl.org/dc/elements/1.1/"
   xmlns:cc="http://creativecommons.org/ns#"
   xmlns:rdf="http://www.w3.org/1999/02/22-rdf-syntax-ns#"
   xmlns:svg="http://www.w3.org/2000/svg"
   xmlns="http://www.w3.org/2000/svg"
   xmlns:xlink="http://www.w3.org/1999/xlink"
   xmlns:inkscape="http://www.inkscape.org/namespaces/inkscape"
   version="1.0"
   width="100"
   height="100"
   id="svg2">
  <metadata
     id="metadata2566">
    <rdf:RDF>
      <cc:Work
         rdf:about="">
        <dc:format>image/svg+xml</dc:format>
        <dc:type
           rdf:resource="http://purl.org/dc/dcmitype/StillImage" />
      </cc:Work>
    </rdf:RDF>
  </metadata>
  <defs
     id="defs4">
    <linearGradient
       id="linearGradient3613">
      <stop
         id="stop3615"
         style="stop-color:#00004c;stop-opacity:1"
         offset="0" />
      <stop
         id="stop3617"
         style="stop-color:#0000ae;stop-opacity:1"
         offset="1" />
    </linearGradient>
    <linearGradient
       id="linearGradient3384">
      <stop
         id="stop3386"
         style="stop-color:#0000ff;stop-opacity:1"
         offset="0" />
      <stop
         id="stop3388"
         style="stop-color:#000000;stop-opacity:1"
         offset="1" />
    </linearGradient>
    <linearGradient
       id="linearGradient3252">
      <stop
         id="stop3254"
         style="stop-color:#ffffff;stop-opacity:1"
         offset="0" />
      <stop
         id="stop3256"
         style="stop-color:#7f7fff;stop-opacity:0"
         offset="1" />
    </linearGradient>
    <linearGradient
       x1="25.398125"
       y1="63.345894"
       x2="90.625114"
       y2="63.345894"
       id="linearGradient3506"
       xlink:href="#linearGradient3384"
       gradientUnits="userSpaceOnUse"
       gradientTransform="matrix(0.2688926,0.2688926,-0.2688926,0.2688926,38.227733,-8.4494346)" />
    <radialGradient
       cx="58.01162"
       cy="63.345894"
       r="33.113495"
       fx="58.01162"
       fy="63.345894"
       id="radialGradient3508"
       xlink:href="#linearGradient3252"
       gradientUnits="userSpaceOnUse"
       gradientTransform="matrix(0.2134373,0,0,0.2134373,19.805211,5.9610473)" />
    <linearGradient
       x1="40.687019"
       y1="39.968079"
       x2="73.02729"
       y2="39.968079"
       id="linearGradient4250"
       xlink:href="#linearGradient3613"
       gradientUnits="userSpaceOnUse"
       gradientTransform="matrix(-1.0713241e-4,-0.2753572,-0.2753572,1.0713241e-4,60.966282,48.498232)" />
    <radialGradient
       cx="-89.470657"
       cy="6.2001209"
       r="33.767956"
       fx="-89.470657"
       fy="6.2001209"
       id="radialGradient4252"
       xlink:href="#linearGradient3252"
       gradientUnits="userSpaceOnUse"
       gradientTransform="matrix(0.6826551,0,0,0.05177658,99.10748,-30.75102)" />
  </defs>
  <path
     d="M 47.655748,43.310068 55.482636,92.128497 67.124257,85.4072 74.942501,98.948786 82.196926,94.760451 74.378682,81.218858 86.020298,74.497565 47.655748,43.310068 z"
     inkscape:connector-curvature="0"
     id="path3688"
     style="fill:#282828;fill-opacity:1;fill-rule:evenodd;stroke:none" />
  <path
     d="M 43.796986,67.256199 C 47.253127,78.061599 41.294209,89.622651 30.488208,93.076903 19.682199,96.531154 8.1221875,90.570213 4.6698337,79.7636 1.2136958,68.958194 7.1726122,57.397146 17.97861,53.942895 c 10.806,-3.454251 22.366021,2.506696 25.818376,13.313304 l 0,0 z"
     inkscape:connector-curvature="0"
     id="path3416"
     style="fill:#d5d2d2;fill-opacity:1;fill-rule:evenodd;stroke:none" />
  <g
     transform="matrix(1.5774553,-0.50424992,0.50424992,1.5774553,-49.004829,51.514532)"
     id="g3418">
    <path
       d="m 49.066773,24.22879 c 0.0012,6.850275 -5.551709,12.404157 -12.401985,12.404157 -6.850275,0 -12.403184,-5.553882 -12.401985,-12.404157 -0.0012,-6.850276 5.55171,-12.404157 12.401985,-12.404157 6.850276,0 12.403184,5.553881 12.401985,12.404157 l 0,0 z"
       inkscape:connector-curvature="0"
       id="path3420"
       style="fill:#0000ff;fill-opacity:1;fill-rule:evenodd;stroke:#000000;stroke-width:0.38027155px;stroke-linecap:butt;stroke-linejoin:miter;stroke-opacity:1" />
    <path
       d="m 45.562914,32.95223 c -4.843029,4.844723 -12.696715,4.845411 -17.54059,0.0015 -4.843878,-4.843877 -4.843189,-12.697563 0.0015,-17.54059 4.843028,-4.844725 12.696714,-4.845413 17.540591,-0.0015 4.843875,4.843876 4.843187,12.697563 -0.0015,17.540591 l 0,0 z"
       inkscape:connector-curvature="0"
       id="path3422"
       style="opacity:0.71739131;fill:url(#linearGradient3506);fill-opacity:1;fill-rule:evenodd;stroke:none" />
    <path
       d="m 39.147988,19.481422 c 6.73e-4,3.844893 -3.11604,6.962154 -6.960935,6.962154 -3.844894,0 -6.961608,-3.117261 -6.960935,-6.962154 -6.73e-4,-3.844895 3.116041,-6.962154 6.960935,-6.962154 3.844895,0 6.961608,3.117259 6.960935,6.962154 l 0,0 z"
       inkscape:connector-curvature="0"
       id="path3424"
       style="fill:url(#radialGradient3508);fill-opacity:1;fill-rule:evenodd;stroke:none" />
  </g>
  <g
     transform="matrix(-1.3542687,1.0876367,-0.67980875,-0.84646246,127.83231,30.972677)"
     id="g2623">
    <path
       d="m 58.215379,28.459546 c 0.669038,-2.6e-4 1.321619,0.504332 1.832047,1.359878 1.020856,1.711095 1.021938,4.492255 0.0024,6.204143 -0.509762,0.855943 -1.162012,1.203112 -1.83105,1.203373 -0.173203,6.7e-5 -0.325981,0.0012 -0.526231,-0.0064 l -43.731313,0.01701 -0.0034,-8.759801 44.257541,-0.01823 z"
       inkscape:connector-curvature="0"
       id="path2625"
       style="fill:#0000bc;fill-opacity:1;fill-rule:evenodd;stroke:#000000;stroke-width:0.13767864;stroke-linecap:round;stroke-linejoin:round;stroke-miterlimit:4;stroke-opacity:1;stroke-dasharray:none;stroke-dashoffset:2.63393869" />
    <path
       d="m 58.215379,28.459546 c 0.669038,-2.6e-4 1.321619,0.504331 1.832047,1.359877 1.020856,1.711094 1.021938,4.492256 0.0024,6.204143 -0.509762,0.855945 -1.162012,1.203113 -1.83105,1.203374 -0.173203,6.7e-5 -0.325982,0.0012 -0.526231,-0.0064 l -43.693909,0.017 -0.0034,-8.759803 44.220137,-0.01822 z"
       inkscape:connector-curvature="0"
       id="path2627"
       style="fill:url(#linearGradient4250);fill-opacity:1;fill-rule:evenodd;stroke:none" />
    <g
       transform="matrix(-2.0714255e-5,-0.2753572,-0.05324084,1.0713241e-4,17.713903,29.639699)"
       id="g2629"
       style="fill:#00007c;fill-opacity:1">
      <path
         d="M 90.625114,63.345894 C 90.628268,81.36006 76.025786,95.9651 58.011619,95.9651 c -18.014166,0 -32.616648,-14.60504 -32.613494,-32.619206 -0.0032,-18.014166 14.599328,-32.619206 32.613494,-32.619206 18.014167,0 32.616649,14.60504 32.613495,32.619206 l 0,0 z"
         inkscape:connector-curvature="0"
         transform="matrix(0,-0.2910472,0.4882663,0,-42.57093,87.178008)"
         id="path2631"
         style="fill:#00007c;fill-opacity:1;fill-rule:evenodd;stroke:#000000;stroke-width:1px;stroke-linecap:butt;stroke-linejoin:miter;stroke-opacity:1" />
      <path
         d="M 90.625114,63.345894 C 90.628268,81.36006 76.025786,95.9651 58.011619,95.9651 c -18.014166,0 -32.616648,-14.60504 -32.613494,-32.619206 -0.0032,-18.014166 14.599328,-32.619206 32.613494,-32.619206 18.014167,0 32.616649,14.60504 32.613495,32.619206 l 0,0 z"
         inkscape:connector-curvature="0"
         transform="matrix(0.3452564,-0.2058015,0.3452564,0.2058015,-53.442293,69.13691)"
         id="path2633"
         style="opacity:0.71739131;fill:#00007c;fill-opacity:1;fill-rule:evenodd;stroke:#000000;stroke-width:1px;stroke-linecap:butt;stroke-linejoin:miter;stroke-opacity:1" />
    </g>
    <rect
       width="46.103737"
       height="3.4967785"
       x="14.978013"
       y="-32.178391"
       transform="matrix(0.9999999,-3.8906696e-4,-3.8906696e-4,-0.9999999,0,0)"
       id="rect2635"
       style="fill:url(#radialGradient4252);fill-opacity:1;fill-rule:evenodd;stroke:none" />
  </g>
  <use
     transform="matrix(1.062853,0,0,1.062853,6.0630478,9.8161376)"
     id="use2703"
     x="0"
     y="0"
     width="100"
     height="100"
     xlink:href="#g2623" />
  <use
     transform="translate(-19.309446,-23.978252)"
     id="use2705"
     x="0"
     y="0"
     width="100"
     height="100"
     xlink:href="#use2703" />
  <path
     d="m 44.958367,40.314366 7.826888,48.818426 11.641621,-6.721294 7.818244,13.54159 7.254424,-4.188343 L 71.6813,78.223156 83.322922,71.501863 44.958367,40.314366 z"
     inkscape:connector-curvature="0"
     id="path6783"
     style="fill:#ffffff;fill-opacity:1;fill-rule:evenodd;stroke:#000000;stroke-width:1.91467118;stroke-linecap:round;stroke-linejoin:round;stroke-miterlimit:4;stroke-opacity:1;stroke-dashoffset:0" />
</svg>

<?xml version="1.0" encoding="UTF-8" standalone="no"?>
<!-- Created with Inkscape (http://www.inkscape.org/) -->
<svg
   xmlns:svg="http://www.w3.org/2000/svg"
   xmlns="http://www.w3.org/2000/svg"
   xmlns:xlink="http://www.w3.org/1999/xlink"
   version="1.0"
   width="100"
   height="100"
   id="svg2">
  <defs
     id="defs4">
    <linearGradient
       id="linearGradient3613">
      <stop
         id="stop3615"
         style="stop-color:#00004c;stop-opacity:1"
         offset="0" />
      <stop
         id="stop3617"
         style="stop-color:#0000ae;stop-opacity:1"
         offset="1" />
    </linearGradient>
    <linearGradient
       id="linearGradient3384">
      <stop
         id="stop3386"
         style="stop-color:#0000ff;stop-opacity:1"
         offset="0" />
      <stop
         id="stop3388"
         style="stop-color:#000000;stop-opacity:1"
         offset="1" />
    </linearGradient>
    <linearGradient
       id="linearGradient3252">
      <stop
         id="stop3254"
         style="stop-color:#ffffff;stop-opacity:1"
         offset="0" />
      <stop
         id="stop3256"
         style="stop-color:#7f7fff;stop-opacity:0"
         offset="1" />
    </linearGradient>
    <linearGradient
       x1="25.398125"
       y1="63.345894"
       x2="90.625114"
       y2="63.345894"
       id="linearGradient3506"
       xlink:href="#linearGradient3384"
       gradientUnits="userSpaceOnUse"
       gradientTransform="matrix(0.2688926,0.2688926,-0.2688926,0.2688926,38.227733,-8.4494346)" />
    <radialGradient
       cx="58.01162"
       cy="63.345894"
       r="33.113495"
       fx="58.01162"
       fy="63.345894"
       id="radialGradient3508"
       xlink:href="#linearGradient3252"
       gradientUnits="userSpaceOnUse"
       gradientTransform="matrix(0.2134373,0,0,0.2134373,19.805211,5.9610473)" />
    <linearGradient
       x1="40.687019"
       y1="39.968079"
       x2="73.02729"
       y2="39.968079"
       id="linearGradient4250"
       xlink:href="#linearGradient3613"
       gradientUnits="userSpaceOnUse"
       gradientTransform="matrix(-1.0713241e-4,-0.2753572,-0.2753572,1.0713241e-4,60.966282,48.498232)" />
    <radialGradient
       cx="-89.470657"
       cy="6.2001209"
       r="33.767956"
       fx="-89.470657"
       fy="6.2001209"
       id="radialGradient4252"
       xlink:href="#linearGradient3252"
       gradientUnits="userSpaceOnUse"
       gradientTransform="matrix(0.6826551,0,0,5.177658e-2,99.10748,-30.75102)" />
  </defs>
  <path
     d="M 47.655748,43.310068 L 55.482636,92.128497 L 67.124257,85.4072 L 74.942501,98.948786 L 82.196926,94.760451 L 74.378682,81.218858 L 86.020298,74.497565 L 47.655748,43.310068 z"
     id="path3688"
     style="fill:#282828;fill-opacity:1;fill-rule:evenodd;stroke:none" />
  <path
     d="M 43.796986,67.256199 C 47.253127,78.061599 41.294209,89.622651 30.488208,93.076903 C 19.682199,96.531154 8.1221875,90.570213 4.6698337,79.7636 C 1.2136958,68.958194 7.1726122,57.397146 17.97861,53.942895 C 28.78461,50.488644 40.344631,56.449591 43.796986,67.256199 L 43.796986,67.256199 L 43.796986,67.256199 z"
     id="path3416"
     style="fill:#d5d2d2;fill-opacity:1;fill-rule:evenodd;stroke:none" />
  <g
     transform="matrix(1.5774553,-0.5042499,0.5042499,1.5774553,-49.004829,51.514532)"
     id="g3418">
    <path
       d="M 49.066773,24.22879 C 49.067973,31.079065 43.515064,36.632947 36.664788,36.632947 C 29.814513,36.632947 24.261604,31.079065 24.262803,24.22879 C 24.261603,17.378514 29.814513,11.824633 36.664788,11.824633 C 43.515064,11.824633 49.067972,17.378514 49.066773,24.22879 L 49.066773,24.22879 L 49.066773,24.22879 z"
       id="path3420"
       style="fill:#0000ff;fill-opacity:1;fill-rule:evenodd;stroke:#000000;stroke-width:0.38027155px;stroke-linecap:butt;stroke-linejoin:miter;stroke-opacity:1" />
    <path
       d="M 45.562914,32.95223 C 40.719885,37.796953 32.866199,37.797641 28.022324,32.95373 C 23.178446,28.109853 23.179135,20.256167 28.023824,15.41314 C 32.866852,10.568415 40.720538,10.567727 45.564415,15.41164 C 50.40829,20.255516 50.407602,28.109203 45.562915,32.952231 L 45.562915,32.952231 L 45.562914,32.95223 z"
       id="path3422"
       style="opacity:0.71739131;fill:url(#linearGradient3506);fill-opacity:1;fill-rule:evenodd;stroke:none" />
    <path
       d="M 39.147988,19.481422 C 39.148661,23.326315 36.031948,26.443576 32.187053,26.443576 C 28.342159,26.443576 25.225445,23.326315 25.226118,19.481422 C 25.225445,15.636527 28.342159,12.519268 32.187053,12.519268 C 36.031948,12.519268 39.148661,15.636527 39.147988,19.481422 L 39.147988,19.481422 z"
       id="path3424"
       style="fill:url(#radialGradient3508);fill-opacity:1;fill-rule:evenodd;stroke:none" />
  </g>
  <g
     transform="matrix(-1.3542687,1.0876367,-0.6798087,-0.8464625,127.83231,30.972677)"
     id="g2623">
    <path
       d="M 58.215379,28.459546 C 58.884417,28.459286 59.536998,28.963878 60.047426,29.819424 C 61.068282,31.530519 61.069364,34.311679 60.049826,36.023567 C 59.540064,36.87951 58.887814,37.226679 58.218776,37.22694 C 58.045573,37.227007 57.892795,37.22814 57.692545,37.22054 L 13.961232,37.23755 L 13.957832,28.477749 L 58.215373,28.459519 L 58.215379,28.459546 z"
       id="path2625"
       style="fill:#0000bc;fill-opacity:1;fill-rule:evenodd;stroke:#000000;stroke-width:0.13767864;stroke-linecap:round;stroke-linejoin:round;stroke-miterlimit:4;stroke-dasharray:none;stroke-dashoffset:2.63393869;stroke-opacity:1" />
    <path
       d="M 58.215379,28.459546 C 58.884417,28.459286 59.536998,28.963877 60.047426,29.819423 C 61.068282,31.530517 61.069364,34.311679 60.049826,36.023566 C 59.540064,36.879511 58.887814,37.226679 58.218776,37.22694 C 58.045573,37.227007 57.892794,37.22814 57.692545,37.22054 L 13.998636,37.23754 L 13.995236,28.477737 L 58.215373,28.459517 L 58.215379,28.459546 z"
       id="path2627"
       style="fill:url(#linearGradient4250);fill-opacity:1;fill-rule:evenodd;stroke:none" />
    <g
       transform="matrix(-2.0714255e-5,-0.2753572,-5.324084e-2,1.0713241e-4,17.713903,29.639699)"
       id="g2629"
       style="fill:#00007c;fill-opacity:1">
      <path
         d="M 90.625114,63.345894 C 90.628268,81.36006 76.025786,95.9651 58.011619,95.9651 C 39.997453,95.9651 25.394971,81.36006 25.398125,63.345894 C 25.394925,45.331728 39.997453,30.726688 58.011619,30.726688 C 76.025786,30.726688 90.628268,45.331728 90.625114,63.345894 L 90.625114,63.345894 L 90.625114,63.345894 z"
         transform="matrix(0,-0.2910472,0.4882663,0,-42.57093,87.178008)"
         id="path2631"
         style="fill:#00007c;fill-opacity:1;fill-rule:evenodd;stroke:#000000;stroke-width:1px;stroke-linecap:butt;stroke-linejoin:miter;stroke-opacity:1" />
      <path
         d="M 90.625114,63.345894 C 90.628268,81.36006 76.025786,95.9651 58.011619,95.9651 C 39.997453,95.9651 25.394971,81.36006 25.398125,63.345894 C 25.394925,45.331728 39.997453,30.726688 58.011619,30.726688 C 76.025786,30.726688 90.628268,45.331728 90.625114,63.345894 L 90.625114,63.345894 L 90.625114,63.345894 z"
         transform="matrix(0.3452564,-0.2058015,0.3452564,0.2058015,-53.442293,69.13691)"
         id="path2633"
         style="opacity:0.71739131;fill:#00007c;fill-opacity:1;fill-rule:evenodd;stroke:#000000;stroke-width:1px;stroke-linecap:butt;stroke-linejoin:miter;stroke-opacity:1" />
    </g>
    <rect
       width="46.103737"
       height="3.4967785"
       x="14.978013"
       y="-32.178391"
       transform="matrix(0.9999999,-3.8906696e-4,-3.8906696e-4,-0.9999999,0,0)"
       id="rect2635"
       style="fill:url(#radialGradient4252);fill-opacity:1;fill-rule:evenodd;stroke:none" />
  </g>
  <use
     transform="matrix(1.062853,0,0,1.062853,6.0630478,9.8161376)"
     id="use2703"
     x="0"
     y="0"
     width="100"
     height="100"
     xlink:href="#g2623" />
  <use
     transform="translate(-19.309446,-23.978252)"
     id="use2705"
     x="0"
     y="0"
     width="100"
     height="100"
     xlink:href="#use2703" />
  <path
     d="M 44.958367,40.314366 L 52.785255,89.132792 L 64.426876,82.411498 L 72.24512,95.953088 L 79.499544,91.764745 L 71.6813,78.223156 L 83.322922,71.501863 L 44.958367,40.314366 z"
     id="path6783"
     style="fill:#ffffff;fill-opacity:1;fill-rule:evenodd;stroke:#000000;stroke-width:1.91467118;stroke-linecap:round;stroke-linejoin:round;stroke-miterlimit:4;stroke-dashoffset:0;stroke-opacity:1" />
</svg>
